images/chat-session-refresh.svg

<svg fill="none" height="110" viewBox="0 0 200 110" width="200" xmlns="http://www.w3.org/2000/svg"><path d="m39.3 15.1-26.4-.1c-3.8 0-6.9 3.1-6.9 6.9l-.1 66.1c0 3.8 3.1 6.9 6.9 6.9l26.3.1c3.8 0 6.9-3.1 6.9-6.9l.2-66.1c0-3.8-3.1-6.9-6.9-6.9zm3.5 73c0 2-1.7 3.7-3.7 3.7l-26.4-.1c-2 0-3.7-1.7-3.7-3.7l.1-66.1c0-2 1.7-3.7 3.7-3.7l26.4.1c2 0 3.7 1.7 3.7 3.7z" fill="#c6c6c6"/><path d="m187.3 15.1-26.4-.1c-3.8 0-6.9 3.1-6.9 6.9l-.1 66.1c0 3.8 3.1 6.9 6.9 6.9l26.4.1c3.8 0 6.9-3.1 6.9-6.9l.1-66.1c0-3.8-3.1-6.9-6.9-6.9zm3.5 73c0 2-1.7 3.7-3.7 3.7l-26.4-.1c-2 0-3.7-1.7-3.7-3.7l.1-66.1c0-2 1.7-3.7 3.7-3.7l26.4.1c2 0 3.7 1.7 3.7 3.7z" fill="#c6c6c6"/><g fill="#848484"><circle cx="126" cy="56" r="2"/><circle cx="136" cy="56" r="2"/><circle cx="146" cy="56" r="2"/><circle cx="54" cy="56" r="2"/><circle cx="64" cy="56" r="2"/><circle cx="74" cy="56" r="2"/></g><circle cx="100" cy="56" fill="#2c6bed" r="18"/><path d="m109.38 56c.013 2.5029-.967 4.9088-2.725 6.6898-1.759 1.781-4.152 2.7917-6.655 2.8102-1.5566-.0206-3.0843-.4235-4.4487-1.1731s-2.5237-1.8231-3.3758-3.1259c-.8522-1.3028-1.3711-2.7951-1.5112-4.3455-.14-1.5505.1031-3.1116.708-4.546.6049-1.4345 1.5531-2.6983 2.761-3.6803 1.208-.9819 2.6388-1.652 4.1665-1.9512 1.5278-.2993 3.1052-.2184 4.5952.2353 1.489.4537 2.844 1.2664 3.945 2.3667l1 1-.35-1.3v-2.42h1.51v5.94h-6v-1.5h2.39l1.42.38-1-1c-1.115-1.128-2.54-1.8992-4.094-2.2156-1.554-.3165-3.167-.1638-4.6341.4384-1.4672.6023-2.7222 1.6271-3.6057 2.9442-.8834 1.3171-1.3555 2.867-1.3562 4.453 0 1.0348.2038 2.0595.5998 3.0155.396.9561.9765 1.8248 1.7082 2.5565s1.6004 1.3122 2.5565 1.7082c.956.396 1.9807.5998 3.0155.5998 1.035 0 2.059-.2038 3.016-.5998.956-.396 1.824-.9765 2.556-1.7082s1.312-1.6004 1.708-2.5565c.396-.956.6-1.9807.6-3.0155z" fill="#fff"/></svg>

<svg width="200" height="110" viewBox="0 0 200 110" fill="none" xmlns="http://www.w3.org/2000/svg">
<path d="M39.3 15.1L12.9 15C9.1 15 6 18.1 6 21.9L5.9 88C5.9 91.8 9 94.9 12.8 94.9L39.1 95C42.9 95 46 91.9 46 88.1L46.2 22C46.2 18.2 43.1 15.1 39.3 15.1ZM42.8 88.1C42.8 90.1 41.1 91.8 39.1 91.8L12.7 91.7C10.7 91.7 9 90 9 88L9.1 21.9C9.1 19.9 10.8 18.2 12.8 18.2L39.2 18.3C41.2 18.3 42.9 20 42.9 22L42.8 88.1Z" fill="#C6C6C6"/>
<path d="M187.3 15.1L160.9 15C157.1 15 154 18.1 154 21.9L153.9 88C153.9 91.8 157 94.9 160.8 94.9L187.2 95C191 95 194.1 91.9 194.1 88.1L194.2 22C194.2 18.2 191.1 15.1 187.3 15.1ZM190.8 88.1C190.8 90.1 189.1 91.8 187.1 91.8L160.7 91.7C158.7 91.7 157 90 157 88L157.1 21.9C157.1 19.9 158.8 18.2 160.8 18.2L187.2 18.3C189.2 18.3 190.9 20 190.9 22L190.8 88.1Z" fill="#C6C6C6"/>
<circle cx="126" cy="56" r="2" fill="#848484"/>
<circle cx="136" cy="56" r="2" fill="#848484"/>
<circle cx="146" cy="56" r="2" fill="#848484"/>
<circle cx="54" cy="56" r="2" fill="#848484"/>
<circle cx="64" cy="56" r="2" fill="#848484"/>
<circle cx="74" cy="56" r="2" fill="#848484"/>
<circle cx="100" cy="56" r="18" fill="#2C6BED"/>
<path d="M109.38 56C109.393 58.5029 108.413 60.9088 106.655 62.6898C104.896 64.4708 102.503 65.4815 100 65.5C98.4434 65.4794 96.9157 65.0765 95.5513 64.3269C94.1869 63.5773 93.0276 62.5038 92.1755 61.201C91.3233 59.8982 90.8044 58.4059 90.6643 56.8555C90.5243 55.305 90.7674 53.7439 91.3723 52.3095C91.9772 50.875 92.9254 49.6112 94.1333 48.6292C95.3413 47.6473 96.7721 46.9772 98.2998 46.678C99.8276 46.3787 101.405 46.4596 102.895 46.9133C104.384 47.367 105.739 48.1797 106.84 49.28L107.84 50.28L107.49 48.98V46.56H109V52.5H103V51H105.39L106.81 51.38L105.81 50.38C104.695 49.252 103.27 48.4808 101.716 48.1644C100.162 47.8479 98.549 48.0006 97.0819 48.6028C95.6147 49.2051 94.3597 50.2299 93.4762 51.547C92.5928 52.8641 92.1207 54.414 92.12 56C92.12 57.0348 92.3238 58.0595 92.7198 59.0155C93.1158 59.9716 93.6963 60.8403 94.428 61.572C95.1597 62.3037 96.0284 62.8842 96.9845 63.2802C97.9405 63.6762 98.9652 63.88 100 63.88C101.035 63.88 102.059 63.6762 103.016 63.2802C103.972 62.8842 104.84 62.3037 105.572 61.572C106.304 60.8403 106.884 59.9716 107.28 59.0155C107.676 58.0595 107.88 57.0348 107.88 56H109.38Z" fill="white"/>
</svg>
